assets/camera-video-off-fill.svg

<svg xmlns="http://www.w3.org/2000/svg" fill="none" viewBox="0 0 28 26">
  <path fill="#2A2238" fill-rule="evenodd" d="M19.1818 20.3962c.4991-.5318.8186-1.207.9134-1.9302l5.4426 2.4185c.2663.1187.5582.1689.8489.1461.2908-.0227.5712-.1178.8159-.2766.2446-.1587.4457-.3761.585-.6324.1393-.2562.2123-.5432.2124-.8349V6.22825c-.0003-.29142-.0733-.57816-.2124-.8342-.1392-.25604-.3401-.47327-.5845-.63198-.2444-.15871-.5246-.25387-.8151-.27684-.2905-.02298-.5822.02695-.8485.14527L20.0952 7.049c-.1112-.8416-.5244-1.61409-1.1629-2.17363-.6384-.55953-1.4584-.86797-2.3073-.86787H7.476l11.7058 16.3887ZM1.48225 4.64625c-.45811.3234-.831858.75208-1.089799 1.25C.134511 6.39416-.00008053 6.94674 4e-8 7.5075v10.5c0 .9283.36874896 1.8185 1.02512996 2.4749.65637.6564 1.54661 1.0251 2.47487 1.0251h10.024L1.48225 4.64625ZM18.5378 25.515 1.03775 1.015 2.46225 0 19.9622 24.5l-1.4244 1.015Z" clip-rule="evenodd"/>
</svg>

<svg width="28" height="26" viewBox="0 0 28 26" fill="none" xmlns="http://www.w3.org/2000/svg">
<path fill-rule="evenodd" clip-rule="evenodd" d="M19.1818 20.3962C19.6809 19.8644 20.0004 19.1892 20.0952 18.466L25.5378 20.8845C25.8041 21.0032 26.096 21.0534 26.3867 21.0306C26.6775 21.0079 26.9579 20.9128 27.2026 20.754C27.4472 20.5953 27.6483 20.3779 27.7876 20.1216C27.9269 19.8654 27.9999 19.5784 28 19.2867V6.22825C27.9997 5.93683 27.9267 5.65009 27.7876 5.39405C27.6484 5.13801 27.4475 4.92078 27.2031 4.76207C26.9587 4.60336 26.6785 4.5082 26.388 4.48523C26.0975 4.46225 25.8058 4.51218 25.5395 4.6305L20.0952 7.049C19.984 6.2074 19.5708 5.43491 18.9323 4.87537C18.2939 4.31584 17.4739 4.0074 16.625 4.0075H7.476L19.1818 20.3962ZM1.48225 4.64625C1.02414 4.96965 0.650392 5.39833 0.392451 5.89625C0.134511 6.39416 -8.05251e-05 6.94674 3.61444e-08 7.5075V18.0075C3.61444e-08 18.9358 0.368749 19.826 1.02513 20.4824C1.6815 21.1388 2.57174 21.5075 3.5 21.5075H13.524L1.48225 4.64625ZM18.5378 25.515L1.03775 1.015L2.46225 0L19.9622 24.5L18.5378 25.515Z" fill="#2A2238"/>
</svg>
